X:1
T:Allemande St. Cloud. TWC.243
T:Allemande St. Cloud. TWC.243
T:French
C:French
L:1/8
Q:1/4=100
M:2/4
K:D
V:1 treble 
V:1
 A | FAFA | G/F/G/A/ GA/G/ | FAdf | e/d/c/B/ A/G/F/E/ | FAFA | G/F/G/A/ GA/G/ | F/A/d/f/ f/e/d/c/ | %8
 df d || a | g/f/e/d/ c/B/A/G/ | F/E/F/G/ Ad/e/ | f/e/d/c/ e/d/c/B/ | A/^G/A/B/ A/B/A/=G/ | FAFA | %15
 G/F/G/A/ GA/G/ | F/A/d/f/ f/e/d/c/ | df d |] %18

